X: 33598
T: Rakes Of Portland Street, The
R: slip jig
M: 9/8
K: Eminor
|:BcA BGE E2D|EBB B2A B^cd|BAF AFE D2A,|D2E FDF FGA:|
|:B2e eBe eBA|G2E EFG BAG|F2d dAd dAG|F2D DEF AFA:|
|:Bee gfe b2e|bab g2e efg|fed def a2f|fed dfe dBA:|

